X: 1
T: Rask S\onderhoning
O: Danmark
R: s\onderhoning
Z: 2007 John Chambers <jc@trillian.mit.edu>
S: handwritten MS of unknown origin (with illegible text at bottom right)
M: 3/4
L: 1/8
K: D
AFG \
| "D"A2 AF GA | "G"B2 Bg gf | "A7"e2 eA fe | "D"d2 dA FG \
| "D"A2 AF GA | "Em"B2 Bg gf | "A7"e2 eA fe | "D"d2 d :| 
|: Ade \
| "D"f2 fa "A7"ag | "D"f2 ed cd | "E7"ef ed cB | "A7"B2 AG FG \
| "D"A2 AF GA | "Em"B2 Bg gf | "A"e2 eA fe | "D"d2 d :|
